X: 7
T: The Frost Is All Over
R: jig
M: 6/8
L: 1/8
K: Dmaj
A| d2 f edc | dAFGFE | DFA DFA | Bcd ecA |
d2 f edc | dAFGFE | DFA DFA |1 Bec d2 :|2 Bec d2 || g |
fdf agf| gfg bag | fdf agf | gfg e2 g |
|1 fdf agf | gfg bag | fga efg | fdd d2 :|2
fga efg | fdB AFA | Bcd efg | faf gfe ||3:|


Tune 448	Setting 13318

